app/img/icons/right.svg

<svg width="40" height="27" viewBox="0 0 40 27" fill="none" xmlns="http://www.w3.org/2000/svg">
<path d="M0.760185 14.2558L12.7992 26.7558C13.1128 27.0814 13.6207 27.0814 13.9342 26.7558C14.2477 26.4303 14.2477 25.903 13.9342 25.5775L3.26514 14.5L38.2474 14.5C38.6911 14.5 39.05 14.1272 39.05 13.6666C39.05 13.206 38.6911 12.8333 38.2474 12.8333L3.26514 12.8333L13.9342 1.75585C14.2477 1.4303 14.2477 0.902959 13.9342 0.577491C13.7774 0.414756 13.572 0.33335 13.3667 0.33335C13.1613 0.33335 12.956 0.414756 12.7992 0.577491L0.760108 13.0775C0.446643 13.403 0.446643 13.9303 0.760185 14.2558Z" fill="#52C4C4"/>
</svg>

<svg width="40" height="27" fill="none" xmlns="http://www.w3.org/2000/svg"><path d="M.76 14.256l12.04 12.5a.782.782 0 001.134 0 .856.856 0 000-1.178L3.265 14.5h34.982c.444 0 .803-.373.803-.833 0-.461-.359-.834-.803-.834H3.265l10.67-11.077a.856.856 0 000-1.179.786.786 0 00-1.136 0L.76 13.077a.856.856 0 000 1.179z" fill="#52C4C4"/></svg>
